app/images/logo.svg

<svg width="176" height="52" viewBox="0 0 176 52" fill="none" xmlns="http://www.w3.org/2000/svg">
<path fill-rule="evenodd" clip-rule="evenodd" d="M0.156652 31.6742C0.397452 31.9857 0.764552 32.0576 0.778752 32.0612L48.8196 41.8593C48.8246 41.86 49.323 41.977 49.728 41.6472C50.1315 41.3184 50.0378 40.843 50.0378 40.843V40.843L43.7866 3.76378C43.7866 3.7628 43.7343 3.35822 43.3381 3.11899C42.9433 2.88012 42.373 3.06771 42.373 3.06771L7.1791 17.118C7.04725 17.1827 6.8432 17.2448 6.67235 17.5697C6.50115 17.8945 0.177952 30.646 0.0898017 30.8265C1.74643e-06 31.0079 -0.0822982 31.3628 0.156652 31.6742ZM45.7428 38.1098L25.6934 26.9648L36.032 24.8063L45.7428 38.1098ZM8.04735 19.2272L20.5686 26.2099L2.7356 29.9245L8.04735 19.2272ZM9.7094 18.0553L41.2404 5.46847L35.6817 23.0555L23.3105 25.6393L9.7094 18.0553ZM47.3634 37.0503L37.5845 23.6533L42.4872 8.13295L47.3634 37.0503ZM43.4766 38.9477L5.42645 31.1873L22.9494 27.5371L43.4766 38.9477Z" fill="#A3BBC8"/>
<path d="M75.6 40.36C73.392 40.36 71.508 39.976 69.948 39.208C68.412 38.44 67.212 37.336 66.348 35.896C65.508 34.432 65.052 32.692 64.98 30.676C64.956 29.644 64.944 28.54 64.944 27.364C64.944 26.164 64.956 25.036 64.98 23.98C65.052 21.988 65.508 20.284 66.348 18.868C67.212 17.452 68.424 16.36 69.984 15.592C71.568 14.824 73.44 14.44 75.6 14.44C77.352 14.44 78.888 14.68 80.208 15.16C81.528 15.616 82.62 16.216 83.484 16.96C84.372 17.68 85.032 18.46 85.464 19.3C85.92 20.14 86.16 20.92 86.184 21.64C86.208 21.856 86.148 22.036 86.004 22.18C85.86 22.324 85.668 22.396 85.428 22.396H81.72C81.48 22.396 81.3 22.348 81.18 22.252C81.06 22.156 80.952 22.012 80.856 21.82C80.664 21.316 80.364 20.824 79.956 20.344C79.548 19.84 78.996 19.42 78.3 19.084C77.604 18.748 76.704 18.58 75.6 18.58C73.968 18.58 72.66 19.012 71.676 19.876C70.716 20.74 70.2 22.168 70.128 24.16C70.056 26.248 70.056 28.36 70.128 30.496C70.2 32.536 70.728 34 71.712 34.888C72.72 35.776 74.04 36.22 75.672 36.22C76.752 36.22 77.712 36.028 78.552 35.644C79.416 35.26 80.088 34.66 80.568 33.844C81.072 33.028 81.324 31.984 81.324 30.712V29.596H76.932C76.692 29.596 76.488 29.512 76.32 29.344C76.152 29.176 76.068 28.96 76.068 28.696V26.788C76.068 26.524 76.152 26.308 76.32 26.14C76.488 25.972 76.692 25.888 76.932 25.888H85.536C85.8 25.888 86.004 25.972 86.148 26.14C86.316 26.308 86.4 26.524 86.4 26.788V30.568C86.4 32.584 85.956 34.324 85.068 35.788C84.204 37.252 82.956 38.38 81.324 39.172C79.716 39.964 77.808 40.36 75.6 40.36ZM91.483 40C91.243 40 91.039 39.916 90.871 39.748C90.703 39.58 90.619 39.376 90.619 39.136V15.304C90.619 15.064 90.703 14.86 90.871 14.692C91.039 14.524 91.243 14.44 91.483 14.44H94.471C94.711 14.44 94.915 14.524 95.083 14.692C95.251 14.86 95.335 15.064 95.335 15.304V39.136C95.335 39.376 95.251 39.58 95.083 39.748C94.915 39.916 94.711 40 94.471 40H91.483ZM108.174 40.36C105.51 40.36 103.398 39.592 101.838 38.056C100.278 36.52 99.4384 34.336 99.3184 31.504C99.2944 31.264 99.2824 30.964 99.2824 30.604C99.2824 30.22 99.2944 29.92 99.3184 29.704C99.4144 27.88 99.8224 26.32 100.542 25.024C101.286 23.704 102.306 22.696 103.602 22C104.898 21.28 106.422 20.92 108.174 20.92C110.118 20.92 111.75 21.328 113.07 22.144C114.39 22.936 115.386 24.052 116.058 25.492C116.73 26.908 117.066 28.552 117.066 30.424V31.18C117.066 31.42 116.982 31.624 116.814 31.792C116.646 31.96 116.43 32.044 116.166 32.044H104.214C104.214 32.044 104.214 32.08 104.214 32.152C104.214 32.224 104.214 32.284 104.214 32.332C104.238 33.172 104.394 33.952 104.682 34.672C104.994 35.368 105.438 35.932 106.014 36.364C106.614 36.796 107.322 37.012 108.138 37.012C108.81 37.012 109.374 36.916 109.83 36.724C110.286 36.508 110.658 36.268 110.946 36.004C111.234 35.74 111.438 35.524 111.558 35.356C111.774 35.068 111.942 34.9 112.062 34.852C112.206 34.78 112.41 34.744 112.674 34.744H115.77C116.01 34.744 116.202 34.816 116.346 34.96C116.514 35.104 116.586 35.284 116.562 35.5C116.538 35.884 116.334 36.352 115.95 36.904C115.59 37.456 115.062 37.996 114.366 38.524C113.67 39.052 112.794 39.496 111.738 39.856C110.706 40.192 109.518 40.36 108.174 40.36ZM104.214 29.02H112.17V28.912C112.17 27.976 112.014 27.16 111.702 26.464C111.39 25.744 110.934 25.192 110.334 24.808C109.734 24.4 109.014 24.196 108.174 24.196C107.334 24.196 106.614 24.4 106.014 24.808C105.414 25.192 104.958 25.744 104.646 26.464C104.358 27.16 104.214 27.976 104.214 28.912V29.02ZM128.952 40.36C126.288 40.36 124.176 39.592 122.616 38.056C121.056 36.52 120.216 34.336 120.096 31.504C120.072 31.264 120.06 30.964 120.06 30.604C120.06 30.22 120.072 29.92 120.096 29.704C120.192 27.88 120.6 26.32 121.32 25.024C122.064 23.704 123.084 22.696 124.38 22C125.676 21.28 127.2 20.92 128.952 20.92C130.896 20.92 132.528 21.328 133.848 22.144C135.168 22.936 136.164 24.052 136.836 25.492C137.508 26.908 137.844 28.552 137.844 30.424V31.18C137.844 31.42 137.76 31.624 137.592 31.792C137.424 31.96 137.208 32.044 136.944 32.044H124.992C124.992 32.044 124.992 32.08 124.992 32.152C124.992 32.224 124.992 32.284 124.992 32.332C125.016 33.172 125.172 33.952 125.46 34.672C125.772 35.368 126.216 35.932 126.792 36.364C127.392 36.796 128.1 37.012 128.916 37.012C129.588 37.012 130.152 36.916 130.608 36.724C131.064 36.508 131.436 36.268 131.724 36.004C132.012 35.74 132.216 35.524 132.336 35.356C132.552 35.068 132.72 34.9 132.84 34.852C132.984 34.78 133.188 34.744 133.452 34.744H136.548C136.788 34.744 136.98 34.816 137.124 34.96C137.292 35.104 137.364 35.284 137.34 35.5C137.316 35.884 137.112 36.352 136.728 36.904C136.368 37.456 135.84 37.996 135.144 38.524C134.448 39.052 133.572 39.496 132.516 39.856C131.484 40.192 130.296 40.36 128.952 40.36ZM124.992 29.02H132.948V28.912C132.948 27.976 132.792 27.16 132.48 26.464C132.168 25.744 131.712 25.192 131.112 24.808C130.512 24.4 129.792 24.196 128.952 24.196C128.112 24.196 127.392 24.4 126.792 24.808C126.192 25.192 125.736 25.744 125.424 26.464C125.136 27.16 124.992 27.976 124.992 28.912V29.02ZM142.313 40C142.073 40 141.869 39.916 141.701 39.748C141.533 39.58 141.449 39.376 141.449 39.136V35.572C141.449 35.308 141.533 35.092 141.701 34.924C141.869 34.756 142.073 34.672 142.313 34.672H145.913C146.153 34.672 146.357 34.756 146.525 34.924C146.693 35.092 146.777 35.308 146.777 35.572V39.136C146.777 39.376 146.693 39.58 146.525 39.748C146.357 39.916 146.153 40 145.913 40H142.313Z" fill="#436372"/>
</svg>

<svg width="176" height="52" fill="none" xmlns="http://www.w3.org/2000/svg"><path fill-rule="evenodd" clip-rule="evenodd" d="M.157 31.674c.24.312.608.384.622.387l48.04 9.798c.006.001.504.118.909-.212.404-.329.31-.804.31-.804l-6.251-37.08a.96.96 0 00-.449-.644c-.395-.239-.965-.051-.965-.051L7.179 17.118c-.132.065-.336.127-.507.452-.17.325-6.494 13.076-6.582 13.256-.09.182-.172.537.067.848zm45.586 6.436l-20.05-11.145 10.339-2.159 9.71 13.304zM8.047 19.227L20.57 26.21 2.736 29.924l5.311-10.697zm1.662-1.172L41.24 5.468l-5.558 17.587L23.31 25.64l-13.6-7.584zM47.363 37.05l-9.779-13.397 4.903-15.52 4.876 28.917zm-3.886 1.898l-38.05-7.76 17.522-3.65 20.528 11.41z" fill="#A3BBC8"/><path d="M75.6 40.36c-2.208 0-4.092-.384-5.652-1.152-1.536-.768-2.736-1.872-3.6-3.312-.84-1.464-1.296-3.204-1.368-5.22a142.903 142.903 0 01-.036-3.312c0-1.2.012-2.328.036-3.384.072-1.992.528-3.696 1.368-5.112.864-1.416 2.076-2.508 3.636-3.276 1.584-.768 3.456-1.152 5.616-1.152 1.752 0 3.288.24 4.608.72 1.32.456 2.412 1.056 3.276 1.8.888.72 1.548 1.5 1.98 2.34.456.84.696 1.62.72 2.34a.627.627 0 01-.18.54c-.144.144-.336.216-.576.216H81.72c-.24 0-.42-.048-.54-.144a1.27 1.27 0 01-.324-.432 5.088 5.088 0 00-.9-1.476c-.408-.504-.96-.924-1.656-1.26-.696-.336-1.596-.504-2.7-.504-1.632 0-2.94.432-3.924 1.296-.96.864-1.476 2.292-1.548 4.284a92.952 92.952 0 000 6.336c.072 2.04.6 3.504 1.584 4.392 1.008.888 2.328 1.332 3.96 1.332 1.08 0 2.04-.192 2.88-.576a4.32 4.32 0 002.016-1.8c.504-.816.756-1.86.756-3.132v-1.116h-4.392a.833.833 0 01-.612-.252.877.877 0 01-.252-.648v-1.908c0-.264.084-.48.252-.648a.833.833 0 01.612-.252h8.604c.264 0 .468.084.612.252a.877.877 0 01.252.648v3.78c0 2.016-.444 3.756-1.332 5.22-.864 1.464-2.112 2.592-3.744 3.384-1.608.792-3.516 1.188-5.724 1.188zM91.483 40a.833.833 0 01-.612-.252.833.833 0 01-.252-.612V15.304c0-.24.084-.444.252-.612a.833.833 0 01.612-.252h2.988c.24 0 .444.084.612.252a.833.833 0 01.252.612v23.832c0 .24-.084.444-.252.612a.833.833 0 01-.612.252h-2.988zm16.691.36c-2.664 0-4.776-.768-6.336-2.304-1.56-1.536-2.4-3.72-2.52-6.552a9.31 9.31 0 01-.036-.9c0-.384.012-.684.036-.9.096-1.824.504-3.384 1.224-4.68.744-1.32 1.764-2.328 3.06-3.024 1.296-.72 2.82-1.08 4.572-1.08 1.944 0 3.576.408 4.896 1.224 1.32.792 2.316 1.908 2.988 3.348.672 1.416 1.008 3.06 1.008 4.932v.756c0 .24-.084.444-.252.612a.877.877 0 01-.648.252h-11.952v.288c.024.84.18 1.62.468 2.34.312.696.756 1.26 1.332 1.692.6.432 1.308.648 2.124.648.672 0 1.236-.096 1.692-.288a4.48 4.48 0 001.116-.72c.288-.264.492-.48.612-.648.216-.288.384-.456.504-.504.144-.072.348-.108.612-.108h3.096c.24 0 .432.072.576.216.168.144.24.324.216.54-.024.384-.228.852-.612 1.404-.36.552-.888 1.092-1.584 1.62-.696.528-1.572.972-2.628 1.332-1.032.336-2.22.504-3.564.504zm-3.96-11.34h7.956v-.108c0-.936-.156-1.752-.468-2.448-.312-.72-.768-1.272-1.368-1.656-.6-.408-1.32-.612-2.16-.612-.84 0-1.56.204-2.16.612-.6.384-1.056.936-1.368 1.656-.288.696-.432 1.512-.432 2.448v.108zm24.738 11.34c-2.664 0-4.776-.768-6.336-2.304-1.56-1.536-2.4-3.72-2.52-6.552a9.31 9.31 0 01-.036-.9c0-.384.012-.684.036-.9.096-1.824.504-3.384 1.224-4.68.744-1.32 1.764-2.328 3.06-3.024 1.296-.72 2.82-1.08 4.572-1.08 1.944 0 3.576.408 4.896 1.224 1.32.792 2.316 1.908 2.988 3.348.672 1.416 1.008 3.06 1.008 4.932v.756c0 .24-.084.444-.252.612a.877.877 0 01-.648.252h-11.952v.288c.024.84.18 1.62.468 2.34.312.696.756 1.26 1.332 1.692.6.432 1.308.648 2.124.648.672 0 1.236-.096 1.692-.288a4.48 4.48 0 001.116-.72c.288-.264.492-.48.612-.648.216-.288.384-.456.504-.504.144-.072.348-.108.612-.108h3.096c.24 0 .432.072.576.216.168.144.24.324.216.54-.024.384-.228.852-.612 1.404-.36.552-.888 1.092-1.584 1.62-.696.528-1.572.972-2.628 1.332-1.032.336-2.22.504-3.564.504zm-3.96-11.34h7.956v-.108c0-.936-.156-1.752-.468-2.448-.312-.72-.768-1.272-1.368-1.656-.6-.408-1.32-.612-2.16-.612-.84 0-1.56.204-2.16.612-.6.384-1.056.936-1.368 1.656-.288.696-.432 1.512-.432 2.448v.108zM142.313 40a.833.833 0 01-.612-.252.833.833 0 01-.252-.612v-3.564c0-.264.084-.48.252-.648a.833.833 0 01.612-.252h3.6c.24 0 .444.084.612.252a.877.877 0 01.252.648v3.564c0 .24-.084.444-.252.612a.833.833 0 01-.612.252h-3.6z" fill="#436372"/></svg>
